Sources/FrostedUI/Resources/Icons.xcassets/sticker32.imageset/sticker-32.svg

<svg width="32" height="32" viewBox="0 0 32 32" fill="none" xmlns="http://www.w3.org/2000/svg" data-fui-icon="true">
  <g clip-path="url(#clip0_6194_112)">
    <path
      d="M19.0796 0.567082C23.7613 -0.51378 28.433 2.40545 29.5139 7.08717L30.4811 11.2768C32.4689 19.8869 27.1005 28.4781 18.4904 30.4659L14.3008 31.4332L13.8614 31.5226C9.33016 32.3294 4.91357 29.4484 3.86651 24.9131L1.25717 13.6108C0.210109 9.07545 2.91676 4.54992 7.34314 3.28868L7.77726 3.17643L19.0796 0.567082ZM8.11469 4.63798C4.24015 5.53249 1.82422 9.39879 2.71872 13.2733L5.32807 24.5756C6.22257 28.4502 10.0889 30.8661 13.9634 29.9716L18.153 29.0044L16.4096 21.453C15.5711 17.8206 17.8359 14.1962 21.4682 13.3576L29.0196 11.6142L28.0523 7.4246C27.1578 3.55007 23.2915 1.13413 19.417 2.02864L8.11469 4.63798ZM21.8056 14.8191C18.9805 15.4714 17.219 18.2904 17.8712 21.1156L19.597 28.5908C26.0751 26.3768 30.1318 19.8862 29.2818 13.0931L21.8056 14.8191Z"
      fill="currentColor"
    />
  </g>
  <defs>
    <clipPath id="clip0_6194_112"><path fill="currentColor" d="M0 0H32V32H0z" /></clipPath>
  </defs>
</svg>

<svg xmlns="http://www.w3.org/2000/svg" width="32" height="32" fill="none" data-fui-icon="true" viewBox="0 0 32 32"><g clip-path="url(#a)"><path fill="currentColor" d="M19.08.567a8.7 8.7 0 0 1 10.434 6.52l.967 4.19c1.988 8.61-3.38 17.201-11.99 19.189l-4.19.967-.44.09a8.7 8.7 0 0 1-9.994-6.61l-2.61-11.302A8.7 8.7 0 0 1 7.343 3.289l.434-.113zM8.115 4.638a7.2 7.2 0 0 0-5.396 8.635l2.61 11.303a7.2 7.2 0 0 0 8.634 5.396l4.19-.968-1.743-7.551a6.75 6.75 0 0 1 5.058-8.095l7.552-1.744-.968-4.19a7.2 7.2 0 0 0-8.635-5.395zm13.69 10.181a5.25 5.25 0 0 0-3.934 6.297l1.726 7.475c6.478-2.214 10.535-8.705 9.685-15.498z"/></g><defs><clipPath id="a"><path fill="currentColor" d="M0 0h32v32H0z"/></clipPath></defs></svg>
